static/images/logos/serviceagent.svg

<svg width="242" height="50" viewBox="0 0 242 50" fill="none" xmlns="http://www.w3.org/2000/svg">
<path d="M69.2077 37.6445C66.0218 37.6445 63.2664 36.3817 61.5156 33.3106L64.9885 31.1006C66.0218 33.1671 67.6865 34.0568 69.4373 34.0568C71.3029 34.0568 72.4509 33.1384 72.4509 31.7607C72.4509 29.7516 70.327 29.1201 67.8587 28.4887C64.7589 27.6851 62.7785 25.8769 62.7785 22.8345C62.7785 19.2181 65.62 16.8358 69.8678 16.8358C72.9963 16.8358 75.0054 18.2135 76.4979 20.5671L73.0537 22.691C72.0778 21.1411 71.1594 20.4236 69.6669 20.4236C68.0596 20.4236 66.8828 21.2846 66.8828 22.6336C66.8828 24.1261 68.3179 24.614 70.0687 25.1593C72.4222 25.9056 76.5553 26.9388 76.5553 31.5311C76.5553 35.1762 73.7712 37.6445 69.2077 37.6445Z" fill="#11120F"/>
<path d="M85.8101 37.6445C81.1891 37.6445 78.0893 34.1429 78.0893 29.8377C78.0893 25.5324 81.3326 21.9734 85.8101 21.9734C90.2875 21.9734 93.3873 25.5324 93.3873 29.8377C93.3873 30.2682 93.3586 30.7274 93.2725 31.2154H82.1075C82.5381 32.9662 83.8583 34.2003 85.8101 34.2003C87.4748 34.2003 88.7663 33.3393 89.4552 32.1912L92.4688 34.4586C91.2634 36.3243 88.7663 37.6445 85.8101 37.6445ZM82.1075 28.3165H89.4839C89.0533 26.6518 87.647 25.3028 85.7527 25.3028C83.9158 25.3028 82.5381 26.537 82.1075 28.3165Z" fill="#11120F"/>
<path d="M95.5667 37.2714V22.3466H99.3266V25.188C99.8432 23.0354 101.364 21.8586 103.948 22.0021V25.6472H103.402C101.163 25.6472 99.4414 27.1397 99.4414 29.6368V37.2714H95.5667Z" fill="#11120F"/>
<path d="M110.94 37.2714L104.712 22.3466H109.304L112.289 30.8709C112.548 31.5885 112.777 32.4782 112.921 33.2532C113.064 32.4782 113.294 31.5885 113.552 30.8709L116.537 22.3466H121.043L114.844 37.2714H110.94Z" fill="#11120F"/>
<path d="M122.48 37.2714V22.3466H126.355V37.2714H122.48ZM122.078 18.8163C122.078 17.5821 123.083 16.5488 124.403 16.5488C125.752 16.5488 126.728 17.5821 126.728 18.8163C126.728 20.1078 125.752 21.1124 124.403 21.1124C123.083 21.1124 122.078 20.0791 122.078 18.8163Z" fill="#11120F"/>
<path d="M136.243 37.6445C131.966 37.6445 128.551 34.1429 128.551 29.809C128.551 25.475 131.88 22.0021 136.444 21.9734C139.17 21.9447 141.38 23.0067 142.643 24.7575L139.658 27.1971C138.969 26.1639 137.821 25.5037 136.501 25.5037C134.033 25.5037 132.425 27.4842 132.425 29.809C132.425 32.1338 134.119 34.1142 136.587 34.1142C138.08 34.1142 139.056 33.368 139.83 32.3347L142.643 34.7744C141.237 36.5826 139.17 37.6445 136.243 37.6445Z" fill="#11120F"/>
<path d="M150.848 37.6445C146.227 37.6445 143.128 34.1429 143.128 29.8377C143.128 25.5324 146.371 21.9734 150.848 21.9734C155.326 21.9734 158.426 25.5324 158.426 29.8377C158.426 30.2682 158.397 30.7274 158.311 31.2154H147.146C147.576 32.9662 148.897 34.2003 150.848 34.2003C152.513 34.2003 153.805 33.3393 154.494 32.1912L157.507 34.4586C156.302 36.3243 153.805 37.6445 150.848 37.6445ZM147.146 28.3165H154.522C154.092 26.6518 152.685 25.3028 150.791 25.3028C148.954 25.3028 147.576 26.537 147.146 28.3165Z" fill="#11120F"/>
<path d="M158.912 37.2714L167.12 17.1803H170.593L178.773 37.2714H174.41L173.033 33.4541H164.652L163.274 37.2714H158.912ZM165.972 29.9812H171.713L169.56 24.4992C169.273 23.7529 169.015 22.978 168.842 22.2031C168.641 22.978 168.412 23.7816 168.125 24.4992L165.972 29.9812Z" fill="#11120F"/>
<path d="M186.564 43.3849C183.55 43.3849 181.196 42.6673 179.417 40.5721L181.828 37.7306C183.234 39.3379 184.727 39.7972 186.592 39.7972C188.659 39.7972 190.467 38.1038 190.467 35.7215V35.0614C189.663 36.4391 188.372 37.3575 185.961 37.3575C181.857 37.3575 178.728 33.9707 178.728 29.6655C178.728 25.3602 181.857 21.9734 185.961 21.9734C188.429 21.9734 189.75 22.9206 190.525 24.3844V22.3466H194.342V35.9511C194.342 40.5434 191.127 43.3849 186.564 43.3849ZM182.603 29.6655C182.603 31.9329 184.067 33.8272 186.592 33.8272C189.147 33.8272 190.639 31.9903 190.639 29.6655C190.639 27.3406 189.147 25.5037 186.592 25.5037C184.067 25.5037 182.603 27.3406 182.603 29.6655Z" fill="#11120F"/>
<path d="M203.89 37.6445C199.269 37.6445 196.17 34.1429 196.17 29.8377C196.17 25.5324 199.413 21.9734 203.89 21.9734C208.368 21.9734 211.468 25.5324 211.468 29.8377C211.468 30.2682 211.439 30.7274 211.353 31.2154H200.188C200.618 32.9662 201.939 34.2003 203.89 34.2003C205.555 34.2003 206.847 33.3393 207.535 32.1912L210.549 34.4586C209.344 36.3243 206.847 37.6445 203.89 37.6445ZM200.188 28.3165H207.564C207.134 26.6518 205.727 25.3028 203.833 25.3028C201.996 25.3028 200.618 26.537 200.188 28.3165Z" fill="#11120F"/>
<path d="M213.288 37.2714V22.3466H217.106V24.5279C217.88 22.8632 219.373 22.0021 221.669 22.0021C224.884 22.0021 227.352 24.3844 227.352 28.1443V37.2714H223.477V29.0914C223.477 26.5083 222.186 25.3889 220.263 25.3889C218.627 25.3889 217.163 26.5083 217.163 29.0914V37.2714H213.288Z" fill="#11120F"/>
<path d="M235.397 37.2714C232.441 37.2714 230.834 35.8937 230.834 32.6504V25.6472H228.738V22.3466H230.834V19.3329L234.708 18.9311V22.3466H237.866V25.6472H234.708V32.4495C234.708 33.3967 235.168 33.8272 235.914 33.8272H237.521V37.2714H235.397Z" fill="#11120F"/>
<path d="M0 20.1642C0 19.2843 0.472962 18.4722 1.23835 18.0381L23.2116 5.57355C23.9604 5.14882 24.8773 5.14923 25.6257 5.57463L47.5506 18.0377C48.3149 18.4721 48.787 19.2836 48.787 20.1628V35.3817C48.787 35.9012 48.5394 36.3895 48.1203 36.6964L40.0708 42.592C39.5326 42.9863 38.7746 42.6019 38.7746 41.9347V27.7344C38.7746 27.2977 38.5416 26.8942 38.1634 26.6759L25.0301 19.0933C24.6519 18.875 24.186 18.875 23.8079 19.0933L10.6745 26.6759C10.2964 26.8942 10.0634 27.2977 10.0634 27.7344V41.9395C10.0634 42.6058 9.30721 42.9904 8.76872 42.598L0.669888 36.6963C0.248956 36.3895 0 35.9001 0 35.3792V20.1642Z" fill="#4242E1"/>
<mask id="mask0_233_2660" style="mask-type:alpha" maskUnits="userSpaceOnUse" x="16" y="25" width="17" height="20">
<path d="M24.028 25.8271C24.2545 25.6963 24.5336 25.6963 24.7602 25.8271L32.2312 30.1405C32.4577 30.2713 32.5973 30.513 32.5973 30.7745V39.4013C32.5973 39.6629 32.4577 39.9046 32.2312 40.0354L24.7602 44.3488C24.5336 44.4796 24.2545 44.4796 24.028 44.3488L16.557 40.0354C16.3305 39.9046 16.1909 39.6629 16.1909 39.4013V30.7745C16.1909 30.513 16.3305 30.2713 16.557 30.1405L24.028 25.8271Z" fill="#2563EB"/>
</mask>
<g mask="url(#mask0_233_2660)">
<path d="M24.3941 25.6108L32.5973 30.347V39.8192L24.3941 44.5553L16.1909 39.8192V30.347L24.3941 25.6108Z" fill="#4242E1"/>
<path d="M16.7814 31.0204C16.4051 30.8018 16.4051 30.2584 16.7814 30.0398L24.111 25.7812C24.2871 25.6789 24.5046 25.6789 24.6807 25.7812L32.0103 30.0398C32.3866 30.2584 32.3866 30.8018 32.0103 31.0204L24.6807 35.2789C24.5046 35.3812 24.2871 35.3812 24.111 35.2789L16.7814 31.0204Z" fill="#818CF8"/>
</g>
</svg>

<svg xmlns="http://www.w3.org/2000/svg" width="242" height="50" fill="none" viewBox="0 0 242 50"><path fill="#11120f" d="M69.208 37.645c-3.186 0-5.942-1.263-7.692-4.334l3.473-2.21c1.033 2.066 2.697 2.956 4.448 2.956 1.866 0 3.014-.919 3.014-2.296 0-2.01-2.124-2.64-4.592-3.272-3.1-.804-5.08-2.612-5.08-5.655 0-3.616 2.841-5.998 7.089-5.998 3.128 0 5.137 1.378 6.63 3.731l-3.444 2.124c-.976-1.55-1.895-2.267-3.387-2.267-1.607 0-2.784.86-2.784 2.21 0 1.492 1.435 1.98 3.186 2.525 2.353.747 6.486 1.78 6.486 6.372 0 3.645-2.784 6.114-7.347 6.114M85.81 37.645c-4.62 0-7.72-3.502-7.72-7.807s3.243-7.865 7.72-7.865 7.577 3.56 7.577 7.865c0 .43-.028.89-.115 1.377H82.107c.431 1.751 1.751 2.985 3.703 2.985 1.665 0 2.956-.86 3.645-2.009l3.014 2.268c-1.206 1.865-3.703 3.185-6.659 3.185m-3.703-9.329h7.377c-.43-1.664-1.837-3.013-3.731-3.013-1.837 0-3.215 1.234-3.645 3.014M95.567 37.271V22.347h3.76v2.841c.516-2.153 2.037-3.33 4.621-3.186v3.645h-.546c-2.239 0-3.96 1.493-3.96 3.99v7.634zM110.94 37.271l-6.228-14.924h4.592l2.985 8.524c.259.718.488 1.607.632 2.382.143-.775.373-1.665.631-2.382l2.985-8.524h4.506l-6.199 14.924zM122.48 37.271V22.347h3.875V37.27zm-.402-18.455c0-1.234 1.005-2.267 2.325-2.267 1.349 0 2.325 1.033 2.325 2.267 0 1.292-.976 2.296-2.325 2.296-1.32 0-2.325-1.033-2.325-2.296M136.243 37.645c-4.277 0-7.692-3.502-7.692-7.836s3.329-7.807 7.893-7.836c2.726-.028 4.936 1.034 6.199 2.785l-2.985 2.44a3.77 3.77 0 0 0-3.157-1.694c-2.468 0-4.076 1.98-4.076 4.305s1.694 4.305 4.162 4.305c1.493 0 2.469-.746 3.243-1.78l2.813 2.44c-1.406 1.809-3.473 2.87-6.4 2.87M150.848 37.645c-4.621 0-7.72-3.502-7.72-7.807s3.243-7.865 7.72-7.865 7.578 3.56 7.578 7.865c0 .43-.029.89-.115 1.377h-11.165c.43 1.751 1.751 2.985 3.702 2.985 1.665 0 2.957-.86 3.646-2.009l3.013 2.268c-1.205 1.865-3.702 3.185-6.659 3.185m-3.702-9.329h7.376c-.43-1.664-1.837-3.013-3.731-3.013-1.837 0-3.215 1.234-3.645 3.014M158.912 37.271l8.208-20.09h3.473l8.18 20.09h-4.363l-1.377-3.817h-8.381l-1.378 3.817zm7.06-7.29h5.741L169.56 24.5a16.5 16.5 0 0 1-.718-2.296c-.201.775-.43 1.579-.717 2.296zM186.564 43.385c-3.014 0-5.368-.718-7.147-2.813l2.411-2.841c1.406 1.607 2.899 2.066 4.764 2.066 2.067 0 3.875-1.693 3.875-4.075v-.66c-.804 1.377-2.095 2.296-4.506 2.296-4.104 0-7.233-3.387-7.233-7.692 0-4.306 3.129-7.693 7.233-7.693 2.468 0 3.789.948 4.564 2.411v-2.037h3.817V35.95c0 4.592-3.215 7.434-7.778 7.434m-3.961-13.72c0 2.268 1.464 4.162 3.989 4.162 2.555 0 4.047-1.837 4.047-4.161 0-2.325-1.492-4.162-4.047-4.162-2.525 0-3.989 1.837-3.989 4.162M203.89 37.645c-4.621 0-7.72-3.502-7.72-7.807s3.243-7.865 7.72-7.865 7.578 3.56 7.578 7.865c0 .43-.029.89-.115 1.377h-11.165c.43 1.751 1.751 2.985 3.702 2.985 1.665 0 2.957-.86 3.645-2.009l3.014 2.268c-1.205 1.865-3.702 3.185-6.659 3.185m-3.702-9.329h7.376c-.43-1.664-1.837-3.013-3.731-3.013-1.837 0-3.215 1.234-3.645 3.014M213.288 37.271V22.347h3.818v2.18c.774-1.664 2.267-2.525 4.563-2.525 3.215 0 5.683 2.382 5.683 6.142v9.127h-3.875v-8.18c0-2.583-1.291-3.702-3.214-3.702-1.636 0-3.1 1.12-3.1 3.702v8.18zM235.397 37.271c-2.956 0-4.563-1.377-4.563-4.62v-7.004h-2.096v-3.3h2.096v-3.014l3.874-.402v3.416h3.158v3.3h-3.158v6.803c0 .947.46 1.377 1.206 1.377h1.607v3.444z"/><path fill="#4242e1" d="M0 20.164c0-.88.473-1.692 1.238-2.126L23.212 5.574a2.44 2.44 0 0 1 2.414 0L47.55 18.039a2.44 2.44 0 0 1 1.236 2.125v15.219a1.63 1.63 0 0 1-.667 1.314l-8.05 5.896a.815.815 0 0 1-1.295-.657v-14.2c0-.437-.233-.84-.612-1.06L25.03 19.094a1.22 1.22 0 0 0-1.222 0l-13.133 7.583a1.22 1.22 0 0 0-.612 1.058V41.94a.815.815 0 0 1-1.294.658l-8.1-5.902A1.63 1.63 0 0 1 0 35.38z"/><mask id="a" width="17" height="20" x="16" y="25" maskUnits="userSpaceOnUse" style="mask-type:alpha"><path fill="#2563eb" d="M24.028 25.827a.73.73 0 0 1 .732 0l7.471 4.313c.227.131.366.373.366.634v8.627c0 .262-.14.504-.366.634l-7.47 4.314a.73.73 0 0 1-.733 0l-7.471-4.314a.73.73 0 0 1-.366-.634v-8.627c0-.261.14-.503.366-.634z"/></mask><g mask="url(#a)"><path fill="#4242e1" d="m24.394 25.61 8.203 4.737v9.472l-8.203 4.736-8.203-4.736v-9.472z"/><path fill="#818cf8" d="M16.781 31.02a.567.567 0 0 1 0-.98l7.33-4.259a.57.57 0 0 1 .57 0l7.33 4.259a.567.567 0 0 1 0 .98l-7.33 4.259a.57.57 0 0 1-.57 0z"/></g></svg>
